X:186
U: ~ = !turn!
%%topmargin 3cm
T:Sean Ryan's Jig
B:Traditional Irish Fiddle Tunes. Randy Miller and Jack Perron.
Z:Transcribed by Ralph Palmer
R:Jig
M:6/8
L:1/8
K:G
"(A"[|] Pc2 A BAG "A)"| AGE DB,G, | ~A,3 EDB, | DEG AGA |
Pc2 A BdB | AGE DB,G, | ~A,3 EGE | DB,G, A,2 B ::
cBA aga | bag edB | GBd ~g3 | GBd cBA |
dBd d^cd | ede gab | age dBA | EFG A2 B :|]
xxxx "(A"|| eBA BAG "A)"|| xxxx xxxx [|] xxxx xxxx [|]
